X: 41631
T: Up The Curtains
R: reel
M: 4/4
K: Edorian
|:Beef g2eg|fd d/d/c dBAd|Beef g2eg|1 f/g/a gf geed:|2 f/g/a gf geef||
gbef g2eg|ef f/f/f af f/f/f|gbef g2eg|f/g/a gf geef|
gbef g2eg|ef f/f/f af f/f/f|g3e effe|deg2- gffe||

